static/images/mobile/copyright/wikipedia-wordmark-yi.svg

<?xml version="1.0" encoding="UTF-8"?>
<svg width="119px" height="22px" viewBox="0 0 119 22" version="1.1" xmlns="http://www.w3.org/2000/svg" xmlns:xlink="http://www.w3.org/1999/xlink">
    <title>yi-wordmark</title>
    <g id="Page-1" stroke="none" stroke-width="1" fill="none" fill-rule="evenodd">
        <path d="M114.934181,0.213871733 C115.82768,0.812722805 116.773462,1.51136657 117.771535,2.30980303 C118.588988,2.97519474 118.997722,3.85919595 118.997722,4.96180668 C118.997722,5.91234853 118.98821,7.40944336 118.969208,9.45309117 C118.950191,11.4872488 118.940686,13.1364271 118.940693,14.4006334 C118.303823,15.2466156 117.657463,15.9072403 117.001598,16.3825076 C117.001591,15.8216901 116.982581,14.4766788 116.944562,12.3474735 C116.91604,10.2182829 116.901783,8.6071236 116.901791,7.51399573 C116.901783,6.55396373 116.830498,5.88383424 116.687919,5.50360728 C116.545333,5.11390476 116.217397,4.73843749 115.70411,4.37722735 C115.371422,4.13960102 114.929421,3.85919595 114.378116,3.53599756 C113.826803,3.20332361 113.408565,2.93242331 113.123407,2.72328936 C113.693729,1.77276941 114.297318,0.936292004 114.934181,0.213871733 M106.550441,0.213871733 C107.443947,0.812722805 108.389729,1.51136657 109.387795,2.30980303 C110.205248,2.97519474 110.613989,3.85919595 110.613989,4.96180668 C110.613989,5.91234853 110.604477,7.40944336 110.585475,9.45309117 C110.566458,11.4872488 110.556946,13.1364271 110.556954,14.4006334 C109.920091,15.2466156 109.273723,15.9072403 108.617858,16.3825076 C108.617858,15.8216901 108.598849,14.4766788 108.56083,12.3474735 C108.532308,10.2182829 108.518051,8.6071236 108.518051,7.51399573 C108.518051,6.55396373 108.446758,5.88383424 108.304186,5.50360728 C108.1616,5.11390476 107.833664,4.73843749 107.320378,4.37722735 C106.987689,4.13960102 106.545689,3.85919595 105.994376,3.53599756 C105.443063,3.20332361 105.024832,2.93242331 104.739667,2.72328936 C105.309989,1.77276941 105.913578,0.936292004 106.550441,0.213871733 M98.4376089,0.356450455 C99.2170431,0.955308827 100.295907,1.86782433 101.674185,3.09399695 C102.273021,3.60730517 102.572443,4.29643688 102.572443,5.16141397 C102.572443,5.55114569 102.50115,5.93136535 102.358571,6.30205835 C101.740718,7.76589381 100.951772,9.07763849 99.9917396,10.2372851 C99.2788314,10.7125597 98.4851327,11.0642577 97.6106436,11.2923793 C98.7798022,9.23922674 99.5734936,7.68985572 99.9917396,6.64425166 C100.077282,6.43514691 100.120054,6.2640466 100.120061,6.13096534 C100.120054,5.68421965 99.8586583,5.24697873 99.3358673,4.81922066 C98.3853254,4.0207842 97.4442956,3.35540709 96.5127706,2.82309665 C96.9975426,1.98664115 97.6391578,1.16442088 98.4376089,0.356450455 M81.9125226,5.81728631 C81.9125226,8.07006808 82.0123226,10.4891832 82.2119445,13.0746389 C82.4210565,15.6601019 82.5256235,17.7275116 82.5256235,19.2768899 C82.1358918,20.0658362 81.5703293,20.8357657 80.8289141,21.586693 C80.8289068,19.6475975 80.6863281,17.4185923 80.4011706,14.8996699 C80.1160059,12.3807475 79.9734272,10.2990733 79.9734272,8.65464011 C80.3631443,7.93224174 81.0095119,6.98645957 81.9125226,5.81728631 Z M81.4562649,-7.10542736e-15 C81.4562649,0.0285361847 81.4610172,0.0998218956 81.470522,0.213871733 C81.4895315,0.318446009 81.5037887,0.394491401 81.5133007,0.442000608 C81.5227982,0.480041554 81.5370553,0.546574884 81.5560722,0.641615198 C81.5750817,0.736684713 81.5940912,0.807970424 81.613108,0.855486931 C81.6321102,0.903025339 81.6558722,0.964813588 81.6843937,1.04083708 C81.7224128,1.10739231 81.7604318,1.1596685 81.7984582,1.19768024 C81.845982,1.22620913 81.8982582,1.25472341 81.9553013,1.2832231 C82.0218274,1.30225452 82.0931204,1.31175928 82.1691658,1.31174468 L90.5814199,1.31174468 C91.522435,1.31175928 92.2496004,1.54464054 92.7629013,2.01038845 C93.2761803,2.47616556 93.5328381,3.30788329 93.5328381,4.50554893 C93.5328381,5.97888916 93.176373,7.54251732 92.4634867,9.19644801 C91.760076,10.850386 90.86657,12.2191593 89.7829688,13.3027678 C89.0985749,13.9871544 88.181307,14.6050004 87.0311652,15.156313 C85.8810087,15.6981209 84.7926405,16.0213047 83.7660679,16.1258644 C84.0797396,15.0422486 84.5502545,14.0441903 85.1776199,13.1316675 C85.6908989,13.0081056 86.1376519,12.8892887 86.5178788,12.775217 C86.9075887,12.6611599 87.3068105,12.5233262 87.7155518,12.361738 C88.1242711,12.2001497 88.4712168,12.024297 88.7563889,11.8341872 C89.0510438,11.6440847 89.3362085,11.4207082 89.6118758,11.1640577 C89.8970186,10.9074219 90.1298999,10.6175047 90.3105196,10.2943137 C90.5006148,9.97113717 90.6669554,9.60518195 90.8095487,9.19644801 C90.9616249,8.78772137 91.070937,8.32671124 91.1374849,7.81341762 C91.2040109,7.29062654 91.2372776,6.71555197 91.2372922,6.08819391 C91.2372776,5.41331935 91.0804417,4.89052827 90.7667773,4.51980607 C90.4530837,4.14910578 90.0253475,3.96375563 89.4835542,3.96374103 L78.5333682,3.96374103 C79.4078574,2.49992746 80.3821538,1.17868532 81.4562649,-7.10542736e-15 Z M71.6324661,0.356450455 C72.4119003,0.955308827 73.4907638,1.86782433 74.8690418,3.09399695 C75.4678782,3.60730517 75.7673001,4.29643688 75.7673001,5.16141397 C75.7673001,5.55114569 75.6960071,5.93136535 75.5534284,6.30205835 C74.9355751,7.76589381 74.1466288,9.07763849 73.1865968,10.2372851 C72.4736886,10.7125597 71.6799899,11.0642577 70.8055007,11.2923793 C71.9746594,9.23922674 72.7683508,7.68985572 73.1865968,6.64425166 C73.2721396,6.43514691 73.3149111,6.2640466 73.3149184,6.13096534 C73.3149111,5.68421965 73.0535155,5.24697873 72.5307245,4.81922066 C71.5801826,4.0207842 70.6391528,3.35540709 69.7076278,2.82309665 C70.1923998,1.98664115 70.834015,1.16442088 71.6324661,0.356450455 M59.7555075,0.356450455 C59.8315441,0.384986639 60.0073931,0.446767589 60.2830553,0.541807903 C60.5587043,0.636877418 60.7440589,0.703410748 60.8391196,0.741422494 C60.9341658,0.769951378 61.1100148,0.831739628 61.3666674,0.926772642 C61.6328103,1.0123374 61.8229172,1.07887803 61.9369896,1.12638723 C62.0605508,1.17393294 62.241153,1.24521865 62.4787953,1.34025897 C62.7259264,1.43532848 62.9207865,1.51611895 63.0633761,1.58264498 C63.2154523,1.64920021 63.4055592,1.73474307 63.6336983,1.83928814 C63.861817,1.94386242 64.0614294,2.04366971 64.2325363,2.13871003 C64.4131275,2.23377954 64.6079875,2.3430916 64.8171163,2.4666462 C65.0262233,2.58072524 65.2305888,2.69954205 65.4302129,2.82309665 C66.0670603,3.22233313 66.537576,3.66908612 66.8417604,4.16335562 C67.1459187,4.65764701 67.2980182,5.3277692 67.2980182,6.17373677 C67.2980182,6.9056618 67.2694886,8.00352745 67.2124695,9.46734831 C67.1554241,10.9311838 67.1269084,12.0813329 67.1269215,12.9177957 C66.9558117,13.4596109 66.7086726,14.0156687 66.3855027,14.5859909 C66.062308,15.156313 65.6963513,15.5983137 65.2876327,15.9119927 L54.8649945,15.9119927 C55.3212508,15.1230464 55.939099,14.2390452 56.7185413,13.259989 L64.4036329,13.259989 C64.6697728,13.2599963 64.8836431,13.1696938 65.0452452,12.9890887 C65.2068254,12.7989862 65.287621,12.5708573 65.2876327,12.3047021 L65.2876327,10.5652213 C65.287621,10.1945137 65.2638576,9.6432083 65.2163418,8.91128327 C65.1783089,8.17938014 65.1592987,7.65658175 65.1593096,7.34290273 C65.1592987,6.79159736 65.0404819,6.34009199 64.8028584,5.98838662 C64.5652139,5.62719108 64.1754938,5.28499777 63.6336983,4.96180668 C62.5025507,4.27742736 61.0672412,3.71660993 59.3277654,3.2793544 C58.7194169,3.91622452 58.4152456,4.64814225 58.4152499,5.475093 C58.4152456,5.76026504 58.4675247,6.0169082 58.5720887,6.24502978 C58.7431803,6.66327578 59.3420182,7.16230496 60.3686033,7.74212461 C59.9028342,8.69266645 59.4228138,9.47686037 58.9285399,10.0947064 C57.3316341,9.45785085 56.4238725,8.6308855 56.2052513,7.61380303 C56.1577224,7.37617669 56.133959,7.14804782 56.1339612,6.9294164 C56.133959,5.78877933 56.590216,4.55783972 57.5027344,3.23658298 C58.3201921,2.06743162 59.071115,1.10739231 59.7555075,0.356450455 Z M62.5786019,7.2003167 C63.1394098,7.62806747 63.6336881,8.12234427 64.0614396,8.68315439 C63.6051724,9.24397912 63.1108934,9.73825591 62.5786019,10.1659921 C62.0272827,9.73825591 61.5330037,9.24397912 61.0957642,8.68315439 C61.5139927,8.1128395 62.0082717,7.61856271 62.5786019,7.2003167 Z M42.1325519,0.370707597 C42.8929773,1.83455036 43.4490409,2.9846995 43.8007441,3.82116231 C44.152437,4.64814225 44.4898772,5.5986768 44.8130661,6.67277324 C45.0031672,7.34766241 45.2930807,8.45028044 45.6828073,9.98064193 C46.0820255,11.501506 46.3434225,12.4948119 46.4670005,12.9605744 C47.6931841,12.2476735 48.4536124,11.7771586 48.7482892,11.5490225 C49.5087074,10.9596981 49.9269439,10.294321 50.002998,9.55289847 C50.0124919,9.45785085 50.0172442,9.35804356 50.0172559,9.25347658 C50.0172442,8.1128395 49.893675,6.94368085 49.6465461,5.7460006 C49.4089015,4.5388302 49.1522569,3.5502693 48.8766115,2.78032523 C49.5514817,1.93435766 50.3309211,1.13115421 51.2149325,0.370707597 C51.8137573,1.96762432 52.1131901,3.73087437 52.1131901,5.66045045 C52.1131901,7.3239005 51.880295,8.81623565 51.4145449,10.1374778 C51.2434358,10.6127524 51.0485758,11.054753 50.8299649,11.4634796 C50.6113298,11.8722136 50.3832009,12.2524259 50.1455782,12.604124 C49.9079329,12.9558221 49.6085139,13.3027678 49.2473206,13.6449611 C48.8861068,13.9871544 48.5391611,14.296081 48.2064828,14.5717337 C47.883291,14.8378816 47.4603028,15.1325511 46.9375161,15.4557349 C46.4147126,15.7694067 45.9299398,16.0450666 45.4831942,16.2827003 C45.0459408,16.5298387 44.470867,16.8197558 43.7579697,17.1524444 C43.045063,17.4851256 42.3986983,17.7797951 41.8188743,18.0364383 C41.2485499,18.3025862 40.5023787,18.6352747 39.5803599,19.0345039 C39.875025,18.0269335 40.2980139,16.943325 40.8493266,15.7836711 C42.7694074,14.9281842 44.1381792,14.2628071 44.9556463,13.7875398 C44.2712546,11.6203228 43.5678577,9.73350353 42.8454542,8.12708935 C42.1325482,6.5111923 41.2057756,4.70041844 40.0651334,2.69477507 C40.6924863,1.82029322 41.3816246,1.04560406 42.1325519,0.370707597 M24.167403,3.96374103 C25.0323895,2.52844175 26.0494625,1.20719961 27.2186263,-7.10542736e-15 C27.2186219,0.0285361847 27.223375,0.0903171341 27.2328842,0.185357448 C27.2518908,0.270922202 27.2613963,0.337455532 27.2614006,0.384972039 C27.2709017,0.423005685 27.2804072,0.484793935 27.2899164,0.570322187 C27.308923,0.655886941 27.327934,0.722427571 27.3469486,0.769936778 C27.3659552,0.807970424 27.3849662,0.860253912 27.4039808,0.926772642 C27.4324929,0.993327873 27.4610087,1.04560406 27.4895295,1.08361581 C27.5275464,1.12164945 27.5655676,1.1596685 27.6035939,1.19768024 C27.6416108,1.23571389 27.6843844,1.26422817 27.7319163,1.2832231 C27.7889434,1.30225452 27.8507287,1.31175928 27.9172708,1.31174468 L33.5206868,1.31174468 C33.9864384,0.760446617 34.437943,0.32319839 34.8752015,-7.10542736e-15 C34.913211,0.294684106 34.932222,0.731932333 34.9322337,1.31174468 L37.6982967,1.31174468 C37.4416367,2.16723891 37.0138962,3.05124013 36.4150714,3.96374103 L34.9322337,3.96374103 L34.9322337,14.4576693 C34.5044807,15.0755226 33.786826,15.7646543 32.779268,16.5250863 L32.779268,3.96374103 L24.167403,3.96374103 M17.451859,0.356450455 C18.2312954,0.955308827 19.3101538,1.86782433 20.6884376,3.09399695 C21.2872682,3.60730517 21.5866945,4.29643688 21.5866945,5.16141397 C21.5866945,5.55114569 21.5153971,5.93136535 21.3728242,6.30205835 C20.7549687,7.76589381 19.9660232,9.07763849 19.0059868,10.2372851 C18.29308,10.7125597 17.4993828,11.0642577 16.6248915,11.2923793 C17.7940487,9.23922674 18.5877466,7.68985572 19.0059868,6.64425166 C19.0915304,6.43514691 19.1343047,6.2640466 19.1343091,6.13096534 C19.1343047,5.68421965 18.872907,5.24697873 18.3501166,4.81922066 C17.3995763,4.0207842 16.4585457,3.35540709 15.5270214,2.82309665 C16.0117935,1.98664115 16.6534058,1.16442088 17.451859,0.356450455 M2.55219204,0.370707597 C3.31261749,1.83455036 3.86868108,2.9846995 4.22038426,3.82116231 C4.57207722,4.64814225 4.90951743,5.5986768 5.23270633,6.67277324 C5.42280739,7.34766241 5.71272087,8.45028044 6.10244748,9.98064193 C6.50166571,11.501506 6.76306271,12.4948119 6.88664067,12.9605744 C8.11282425,12.2476735 8.87325261,11.7771586 9.16792942,11.5490225 C9.92834757,10.9596981 10.3465841,10.294321 10.4226382,9.55289847 C10.432132,9.45785085 10.4368844,9.35804356 10.4368961,9.25347658 C10.4368844,8.1128395 10.3133152,6.94368085 10.0661863,5.7460006 C9.82854173,4.5388302 9.57189711,3.5502693 9.29625173,2.78032523 C9.97112191,1.93435766 10.7505613,1.13115421 11.6345727,0.370707597 C12.2333975,1.96762432 12.5328303,3.73087437 12.5328303,5.66045045 C12.5328303,7.3239005 12.2999352,8.81623565 11.8341851,10.1374778 C11.663076,10.6127524 11.468216,11.054753 11.249605,11.4634796 C11.03097,11.8722136 10.8028411,12.2524259 10.5652184,12.604124 C10.3275731,12.9558221 10.0281541,13.3027678 9.66696079,13.6449611 C9.305747,13.9871544 8.95880131,14.296081 8.62612298,14.5717337 C8.30293116,14.8378816 7.87994299,15.1325511 7.35715629,15.4557349 C6.8343528,15.7694067 6.34958004,16.0450666 5.90283435,16.2827003 C5.46558101,16.5298387 4.89050717,16.8197558 4.17760991,17.1524444 C3.46470316,17.4851256 2.81833851,17.7797951 2.23851448,18.0364383 C1.66818981,18.3025862 0.92201902,18.6352747 0,19.0345039 C0.294665271,18.0269335 0.717653801,16.943325 1.26896683,15.7836711 C3.18904756,14.9281842 4.55781935,14.2628071 5.37528651,13.7875398 C4.69089477,11.6203228 3.98749789,9.73350353 3.26509441,8.12708935 C2.55218839,6.5111923 1.62541575,4.70041844 0.484773859,2.69477507 C1.11212629,1.82029322 1.80126479,1.04560406 2.55219204,0.370707597" id="yi-wordmark" fill="#000000" fill-rule="nonzero"></path>
    </g>
</svg>

<svg xmlns="http://www.w3.org/2000/svg" width="119" height="22"><path fill="#000" fill-rule="nonzero" d="M114.934.214c.894.599 1.84 1.297 2.838 2.096.817.665 1.226 1.55 1.226 2.652 0 .95-.01 2.447-.029 4.491a551.791 551.791 0 0 0-.028 4.948c-.637.846-1.284 1.506-1.94 1.982 0-.561-.018-1.906-.056-4.036-.029-2.129-.043-3.74-.043-4.833 0-.96-.072-1.63-.214-2.01-.143-.39-.47-.766-.984-1.127a18.111 18.111 0 0 0-1.326-.841c-.551-.333-.97-.604-1.255-.813.57-.95 1.174-1.787 1.811-2.51m-8.384 0c.894.6 1.84 1.298 2.838 2.097.817.665 1.226 1.55 1.226 2.652 0 .95-.01 2.447-.029 4.491a551.789 551.789 0 0 0-.028 4.948c-.637.846-1.283 1.506-1.94 1.982 0-.561-.018-1.906-.056-4.036-.029-2.129-.043-3.74-.043-4.833 0-.96-.071-1.63-.214-2.01-.142-.39-.47-.766-.984-1.127a18.11 18.11 0 0 0-1.326-.841 17.79 17.79 0 0 1-1.254-.813c.57-.95 1.174-1.787 1.81-2.51m-8.112.143c.779.6 1.858 1.512 3.236 2.738.599.513.898 1.202.898 2.067 0 .39-.07.77-.213 1.141a15.702 15.702 0 0 1-2.367 3.935 7.812 7.812 0 0 1-2.381 1.055c1.169-2.053 1.962-3.602 2.38-4.648.086-.209.13-.38.13-.513 0-.447-.262-.884-.785-1.312a19.327 19.327 0 0 0-2.823-1.996c.485-.836 1.126-1.659 1.925-2.467M81.913 5.817c0 2.253.1 4.672.299 7.258.21 2.585.314 4.653.314 6.202-.39.789-.956 1.559-1.697 2.31 0-1.94-.143-4.168-.428-6.687-.285-2.52-.428-4.6-.428-6.245.39-.723 1.037-1.669 1.94-2.838ZM81.456 0c0 .029.005.1.015.214l.042.228c.01.038.024.105.043.2.02.095.038.166.057.213.02.048.043.11.071.186a.744.744 0 0 0 .114.157c.048.028.1.057.157.085a.774.774 0 0 0 .214.029h8.412c.941 0 1.669.233 2.182.698.513.466.77 1.298.77 2.496 0 1.473-.357 3.037-1.07 4.69-.703 1.654-1.596 3.023-2.68 4.107-.684.684-1.602 1.302-2.752 1.853-1.15.542-2.238.865-3.265.97a10.306 10.306 0 0 1 1.412-2.994c.513-.124.96-.243 1.34-.357.39-.114.789-.252 1.198-.413a5.577 5.577 0 0 0 1.04-.528c.295-.19.58-.413.856-.67.285-.257.518-.546.699-.87.19-.323.356-.689.499-1.098.152-.408.26-.87.327-1.383.067-.522.1-1.097.1-1.725 0-.675-.157-1.197-.47-1.568-.314-.37-.742-.556-1.283-.556h-10.95A24.563 24.563 0 0 1 81.455 0Zm-9.824.356c.78.6 1.859 1.512 3.237 2.738.599.513.898 1.202.898 2.067 0 .39-.071.77-.214 1.141a15.702 15.702 0 0 1-2.366 3.935 7.812 7.812 0 0 1-2.381 1.055c1.169-2.053 1.962-3.602 2.38-4.648.086-.209.129-.38.129-.513 0-.447-.261-.884-.784-1.312a19.327 19.327 0 0 0-2.823-1.996c.484-.836 1.126-1.659 1.924-2.467m-11.876 0c.076.029.251.09.527.186.276.095.461.161.556.2.095.028.271.09.528.185.266.085.456.152.57.2.124.047.304.118.542.213.247.095.442.176.584.243.152.066.343.152.57.256.229.105.428.205.6.3.18.095.375.204.584.328.21.114.414.233.613.356.637.4 1.108.846 1.412 1.34.304.495.456 1.165.456 2.01 0 .733-.029 1.83-.086 3.294a93.929 93.929 0 0 0-.085 3.45 8.734 8.734 0 0 1-.741 1.669c-.324.57-.69 1.012-1.098 1.326H54.865c.456-.789 1.074-1.673 1.854-2.652h7.685a.82.82 0 0 0 .641-.27c.162-.191.243-.42.243-.685v-1.74c0-.37-.024-.922-.072-1.654a34.537 34.537 0 0 1-.057-1.568c0-.551-.119-1.003-.356-1.355-.238-.36-.628-.703-1.17-1.026-1.13-.685-2.566-1.245-4.305-1.683-.609.637-.913 1.37-.913 2.196 0 .285.053.542.157.77.171.418.77.917 1.797 1.497-.466.95-.946 1.735-1.44 2.353-1.597-.637-2.505-1.464-2.724-2.481a3.49 3.49 0 0 1-.071-.685c0-1.14.456-2.371 1.369-3.692.817-1.17 1.568-2.13 2.253-2.88ZM62.579 7.2c.56.428 1.055.922 1.482 1.483a9.94 9.94 0 0 1-1.482 1.483 8.42 8.42 0 0 1-1.483-1.483A6.856 6.856 0 0 1 62.579 7.2ZM42.133.37c.76 1.465 1.316 2.615 1.668 3.451a27.8 27.8 0 0 1 1.012 2.852c.19.675.48 1.777.87 3.308.399 1.52.66 2.514.784 2.98 1.226-.713 1.987-1.184 2.281-1.412.76-.59 1.179-1.255 1.255-1.996.01-.095.014-.195.014-.3 0-1.14-.123-2.31-.37-3.507-.238-1.207-.495-2.196-.77-2.966A17.958 17.958 0 0 1 51.215.37c.599 1.598.898 3.36.898 5.29 0 1.664-.233 3.156-.698 4.477a9.964 9.964 0 0 1-.585 1.326 12.93 12.93 0 0 1-.684 1.141 6.326 6.326 0 0 1-.899 1.041c-.36.342-.708.651-1.04.927-.324.266-.747.56-1.27.884-.522.313-1.007.59-1.454.827a25.78 25.78 0 0 1-1.725.87c-.713.332-1.36.627-1.94.883a91.19 91.19 0 0 1-2.238.999c.295-1.008.718-2.092 1.27-3.251 1.92-.856 3.288-1.521 4.106-1.996-.685-2.168-1.388-4.054-2.11-5.66-.713-1.617-1.64-3.428-2.78-5.433A14.374 14.374 0 0 1 42.132.37M24.167 3.964A22.01 22.01 0 0 1 27.22 0c0 .029.004.09.014.185a.989.989 0 0 1 .028.2c.01.038.02.1.029.185.019.086.038.152.057.2.019.038.038.09.057.157a.772.772 0 0 0 .086.157l.114.114a.38.38 0 0 0 .128.085.582.582 0 0 0 .185.029h5.604C33.986.76 34.438.323 34.875 0c.038.295.057.732.057 1.312h2.766c-.256.855-.684 1.74-1.283 2.652h-1.483v10.494c-.428.618-1.145 1.307-2.153 2.067V3.964h-8.612M17.452.356c.78.6 1.858 1.512 3.236 2.738.6.513.899 1.202.899 2.067 0 .39-.072.77-.214 1.141a15.702 15.702 0 0 1-2.367 3.935 7.811 7.811 0 0 1-2.381 1.055c1.169-2.053 1.963-3.602 2.381-4.648.086-.209.128-.38.128-.513 0-.447-.261-.884-.784-1.312a19.327 19.327 0 0 0-2.823-1.996c.485-.836 1.126-1.659 1.925-2.467m-14.9.015c.76 1.464 1.317 2.614 1.668 3.45a27.8 27.8 0 0 1 1.013 2.852c.19.675.48 1.777.87 3.308.399 1.52.66 2.514.784 2.98 1.226-.713 1.986-1.184 2.28-1.412.761-.59 1.18-1.255 1.256-1.996.01-.095.014-.195.014-.3 0-1.14-.124-2.31-.37-3.507-.238-1.207-.495-2.196-.77-2.966A17.958 17.958 0 0 1 11.634.37c.598 1.598.898 3.36.898 5.29 0 1.664-.233 3.156-.699 4.477a9.964 9.964 0 0 1-.584 1.326 12.93 12.93 0 0 1-.685 1.141 6.326 6.326 0 0 1-.898 1.041c-.361.342-.708.651-1.04.927-.324.266-.747.56-1.27.884-.523.313-1.007.59-1.454.827a25.78 25.78 0 0 1-1.725.87c-.713.332-1.36.627-1.94.883A91.19 91.19 0 0 1 0 19.035c.295-1.008.718-2.092 1.269-3.251 1.92-.856 3.289-1.521 4.106-1.996-.684-2.168-1.388-4.054-2.11-5.66C2.552 6.51 1.625 4.7.485 2.694A14.374 14.374 0 0 1 2.552.37"/></svg>
